X:4005
T:Da Slockit Light
R:Air
C:Tom Anderson, 1969
O:Scotland, Shetland
M:4/4
L:1/8
Q:1/4=90
K:D
FE|"D"D3F A2d2|fedc d2A2|"G"B2d2 "D/F#"A2d2|"Em"BAGF "A7"EGFE|
"D"D3F A2d2|fedc "Bm"d2A2|"G"B2G2 "A7"AGFE|"D"D4- D2:|
g2|"D"f2a2 "A7"e3c|"Bm"d3e "A"dcBA|"D"f2a2 "E7"e2^g2|"A"a4- a2=g2|
"D"f2a2 "A7"e3c|"G"d3e "D/F#"dcBA|"Em"B2G2 "A7"AGFE|"D"D4- D3g|
"D"f2a2 "A7"e3c|"Bm"d3e "G"dc"D/F#"BA|"G"B2d2 A2d2|BAGF "A"EGFE|
"D"D3F A2d2|"A"fedc "Bm"d2A2|"G"B2G2 "A7"AGFE|"D"D4- D2|]

